icons/1_Primary/TeamViewer.svg

<svg width="1024" height="1024" viewBox="0 0 1024 1024" fill="none" xmlns="http://www.w3.org/2000/svg">
<g clip-path="url(#clip0_2_3609)">
<path d="M512 1024C794.77 1024 1024 794.77 1024 512C1024 229.23 794.77 0 512 0C229.23 0 0 229.23 0 512C0 794.77 229.23 1024 512 1024Z" fill="#9ABEFF"/>
<path d="M737.91 768H285.83C277.88 767.979 270.262 764.811 264.64 759.19C259.019 753.568 255.851 745.95 255.83 738V286C255.851 278.05 259.019 270.432 264.64 264.81C270.262 259.189 277.88 256.021 285.83 256H737.91C745.86 256.021 753.478 259.189 759.1 264.81C764.721 270.432 767.889 278.05 767.91 286V738C767.889 745.95 764.721 753.568 759.1 759.19C753.478 764.811 745.86 767.979 737.91 768ZM509.91 301C394.6 302 301.63 396.62 300.8 512C299.95 629.48 394.26 722.88 511.8 723C627.32 723.06 720.8 627 722.8 512C724.87 393.11 628.81 299.95 509.94 301H509.91ZM461.71 440.17L442.71 486.23H582.21L563.21 440.17L705 512L563.3 583.79L582.3 537.73H442.74L461.56 583.79L319.5 512L461.71 440.17Z" fill="white"/>
</g>
<defs>
<clipPath id="clip0_2_3609">
<rect width="1024" height="1024" fill="white"/>
</clipPath>
</defs>
</svg>

<svg xmlns="http://www.w3.org/2000/svg" width="1024" height="1024" fill="none">
   <g clip-path="url(#a)">
      <path fill="#9ABEFF" d="M512 1024c282.77 0 512-229.23 512-512S794.77 0 512 0 0 229.23 0 512s229.23 512 512 512Z"/>
      <path fill="#fff" d="M737.91 768H285.83a30.083 30.083 0 0 1-30-30V286a30.083 30.083 0 0 1 30-30h452.08a30.083 30.083 0 0 1 30 30v452a30.083 30.083 0 0 1-30 30Zm-228-467c-115.31 1-208.28 95.62-209.11 211-.85 117.48 93.46 210.88 211 211 115.52.06 209-96 211-211 2.07-118.89-93.99-212.05-212.86-211h-.03Zm-48.2 139.17-19 46.06h139.5l-19-46.06L705 512l-141.7 71.79 19-46.06H442.74l18.82 46.06L319.5 512l142.21-71.83Z"/>
   </g>
   <defs>
      <clipPath id="a">
         <path fill="#fff" d="M0 0h1024v1024H0z"/>
      </clipPath>
   </defs>
</svg>
